icon-themes/breeze_svg/cmd/sc_datafilterspecialfilter.svg

<svg viewBox="0 0 16 16" xmlns="http://www.w3.org/2000/svg"><path d="m3 2-1 1v1 .3125l4 5.65625v.03125 2l1 .5v-1.5-1-.375l-4-5.625v-1h4.25 1.75 4v1l-2.125 3h1.25l1.875-2.6875v-1.3125l-1-1h-4-1.75z" fill="#4d4d4d"/><path d="m8 8v6h6v-6zm1 2h4v3h-4z" fill="#1d99f3"/></svg>

<svg xmlns="http://www.w3.org/2000/svg" viewBox="0 0 16 16">
 <path 
     style="fill:#4d4d4d" 
     d="M 3 2 L 2 3 L 2 4 L 2 4.3125 L 6 9.96875 L 6 10 L 6 12 L 7 12.5 L 7 11 L 7 10 L 7 9.625 L 3 4 L 3 3 L 7.25 3 L 9 3 L 13 3 L 13 4 L 10.875 7 L 12.125 7 L 14 4.3125 L 14 3 L 13 2 L 9 2 L 7.25 2 L 3 2 z "
     />
 <path 
     style="fill:#1d99f3" 
     d="M 8 8 L 8 14 L 14 14 L 14 8 L 8 8 z M 9 10 L 13 10 L 13 13 L 9 13 L 9 10 z "
     />
 </svg>
